X:1
T:Title
%%score { ( 1 3 ) | ( 2 4 ) }
L:1/8
M:4/4
K:Ab
V:1 treble nm="Grand Piano"
V:3 treble 
V:2 bass 
V:4 bass 
V:1
 z4 z2 z[Q:1/4=88] [CE] | [Ec]>[Ec] [Ec]>[Ec] [CA]>[CA] [CA]>[EA] | %2
[M:7/8] [FA]>[FB][FA]>[DF] [CE]3 |[M:1/8] E |[M:4/4] E>B B>B [CA]>[Ec] [Ec]>[Ec] | %5
[M:3/4] [EB]<[EB] [A=d]>[Ad] [Ge]2 |[M:1/4] [Ge]>[Ed] | %7
[M:4/4] [Ec]<[Ec] [Ec]>[=D_c] [E=c]2 [Ec]>[EB] | [FA]<[FA] [FA]>[=EG] [FA]3 [DF] | %9
[M:3/4] [CE]>[CE] [EA]>B c<c |[M:1/4] e>c |[M:3/4] c<B B>c B2 |[M:1/4] [Ge]>[Ed] | %13
[M:4/4] [Ec]<[Ec] [Ec]>[=D_c] [E=c]2 [Ec]>[EB] | [FA]<[FA] [FA]>[=EG] [FA]3 [DF] | %15
[M:3/4] [CE]>[CE] [EA]>B c<c |[M:11/32] z/4 z/4 z/4 z/4 z/4 z/4 z/ [Fd]3/4 | %17
[M:7/8] z/ c/-c-c/4 z/4 z/ z/ B/-B/4 z/4 z/ z2 |] %18
V:2
 z4 z2 z [A,,A,] | [A,,A,]>[A,,A,] [A,,A,]>[A,,A,] [A,,E,]>[A,,E,] [A,,E,]>[C,A,] | %2
[M:7/8] [D,D]>[D,C][D,D]>[D,A,] [B,,A,]3 |[M:1/8] [C,A,] | %4
[M:4/4] [E,G,]>[E,G,D] [E,G,D]>[E,G,D] [A,,A,]>[A,,A,] [A,,A,]>[A,,A,] | %5
[M:3/4] [B,,G,]<[B,,G,] [B,,B,]>[B,,B,] [E,B,]2 |[M:1/4] [E,B,]>[E,G,] | %7
[M:4/4] [A,,A,]<[A,,A,] [A,,A,]>[A,,A,] [A,,A,]2 [A,,A,]>[C,A,] | %8
 [D,D]<[D,D] [D,D]>[D,D] [D,D]3 [D,A,] |[M:3/4] [A,,A,]>[A,,A,] [C,A,]>[E,G,E] [A,E]<[A,E] | %10
[M:1/4] [A,CE]>[A,E] |[M:3/4] [E,A,E]<[E,G,E] [E,G,E]>[E,A,E] [E,G,E]2 |[M:1/4] [E,B,]>[E,G,] | %13
[M:4/4] [A,,A,]<[A,,A,] [A,,A,]>[A,,A,] [A,,A,]2 [A,,A,]>[C,A,] | %14
 [D,D]<[D,D] [D,D]>[D,D] [D,D]3 [D,A,] |[M:3/4] [A,,A,]>[A,,A,] [C,A,]>[E,G,E] [A,E]<[A,E] | %16
[M:11/32] A,/4-A,/4-A,/4-A,/4-A,/-<A,/[D,A,]3/4 | %17
[M:7/8] z/ A,/-A,-A,/4 z/4 z/ z/ [E,DE]/-[E,DE]/4 z/4 z/ z2 |] %18
V:3
 x8 | x8 |[M:7/8] x7 |[M:1/8] x |[M:4/4] x8 |[M:3/4] x6 |[M:1/4] x2 |[M:4/4] x8 | x8 |[M:3/4] x6 | %10
[M:1/4] x2 |[M:3/4] x6 |[M:1/4] x2 |[M:4/4] x8 | x8 |[M:3/4] x6 | %16
[M:11/32] [Ee]/4-[Ee]/4-[Ee]/4-[Ee]/4-[Ee]/4-[Ee]/4-[Ee]/-<[Ee]/ z/4 |[M:7/8] .c z B2 [CEA]3 |] %18
V:4
 x8 | x8 |[M:7/8] x7 |[M:1/8] x |[M:4/4] x8 |[M:3/4] x6 |[M:1/4] x2 |[M:4/4] x8 | x8 |[M:3/4] x6 | %10
[M:1/4] x2 |[M:3/4] x6 |[M:1/4] x2 |[M:4/4] x8 | x8 |[M:3/4] x6 | %16
[M:11/32] C,/4-C,/4-C,/4-C,/4-C,/4-C,/4-C,/-<C,/ z/4 |[M:7/8] [E,A,E]<[E,E] [E,DE]2 A,,3 |] %18

